icons/actions/22/stroke-cap-round.svg

<svg xmlns="http://www.w3.org/2000/svg" viewBox="0 0 22 22">
  <defs id="defs3051">
    <style type="text/css" id="current-color-scheme">
      .ColorScheme-Text {
        color:#4d4d4d;
      }
      </style>
  </defs>
 <path 
    style="fill:currentColor;fill-opacity:1;stroke:none" 
	d="m11 3c-2.769999 0-5 2.230001-5 5v6 5h1 3v-.09961-.175782-1.724608-8-1c0-.554.446-1 1-1 .554 0 1 .446 1 1v9 1 .724609.175782.09961h1 2 1v-1-9-1c0-2.77-2.230001-5-5-5m0 1c2.215999 0 4 1.784001 4 4v6 2.982422 1.017578h-1.021484-.978516v-.558594-8.441406-1c0-1.107999-.892001-2-2-2-1.107999 0-2 .892001-2 2v9 1h-2v-1.017578-2.982422-5-1c0-2.215999 1.784001-4 4-4"
	class="ColorScheme-Text"
    />  
</svg>

<?xml version="1.0"?>
<!-- Created with Inkscape (http://www.inkscape.org/) -->
<svg xmlns:dc="http://purl.org/dc/elements/1.1/" xmlns:cc="http://creativecommons.org/ns#" xmlns:rdf="http://www.w3.org/1999/02/22-rdf-syntax-ns#" xmlns:svg="http://www.w3.org/2000/svg" xmlns="http://www.w3.org/2000/svg" xmlns:sodipodi="http://sodipodi.sourceforge.net/DTD/sodipodi-0.dtd" xmlns:inkscape="http://www.inkscape.org/namespaces/inkscape" width="22" height="22" id="svg3049" version="1.1" inkscape:version="0.48+devel r" sodipodi:docname="stroke-cap-round.svg" inkscape:export-filename="/home/uri/.kde/share/icons/NITRUX-KDE/16x16/actions/view-right-new.png" inkscape:export-xdpi="30" inkscape:export-ydpi="30">
  <defs id="defs3051">
    <style type="text/css" id="current-color-scheme">
      .ColorScheme-Text {
        color:#4d4d4d;
      }
      .ColorScheme-Background {
        color:#eff0f1;
      }
      .ColorScheme-Highlight {
        color:#3daee9;
      }
      .ColorScheme-ViewText {
        color:#31363b;
      }
      .ColorScheme-ViewBackground {
        color:#fcfcfc;
      }
      .ColorScheme-ViewHover {
        color:#93cee9;
      }
      .ColorScheme-ViewFocus{
        color:#3daee9;
      }
      .ColorScheme-ButtonText {
        color:#31363b;
      }
      .ColorScheme-ButtonBackground {
        color:#eff0f1;
      }
      .ColorScheme-ButtonHover {
        color:#93cee9;
      }
      .ColorScheme-ButtonFocus{
        color:#3daee9;
      }
      </style>
  </defs>
  <sodipodi:namedview id="base" pagecolor="#ffffff" bordercolor="#666666" borderopacity="1.0" inkscape:pageopacity="0.0" inkscape:pageshadow="2" inkscape:zoom="27.680183" inkscape:cx="12.602866" inkscape:cy="9.9703449" inkscape:document-units="px" inkscape:current-layer="layer1" showgrid="true" fit-margin-top="0" fit-margin-left="0" fit-margin-right="0" fit-margin-bottom="0" inkscape:window-width="1366" inkscape:window-height="666" inkscape:window-x="-2" inkscape:window-y="25" inkscape:window-maximized="1" inkscape:showpageshadow="false" borderlayer="true">
    <sodipodi:guide position="2.0000044,20.00003" orientation="18,0" id="guide4067"/>
    <sodipodi:guide position="2.0000044,2.0000296" orientation="0,18" id="guide4069"/>
    <sodipodi:guide position="20.000004,2.0000296" orientation="-18,0" id="guide4071"/>
    <sodipodi:guide position="20.000004,20.00003" orientation="0,-18" id="guide4073"/>
    <sodipodi:guide position="3.0000044,19.00003" orientation="16,0" id="guide4077"/>
    <sodipodi:guide position="3.0000044,3.0000296" orientation="0,16" id="guide4079"/>
    <sodipodi:guide position="19.000004,3.0000296" orientation="-16,0" id="guide4081"/>
    <sodipodi:guide position="19.000004,19.00003" orientation="0,-16" id="guide4083"/>
    <inkscape:grid type="xygrid" id="grid4085"/>
  </sodipodi:namedview>
  <metadata id="metadata3054">
    <rdf:RDF>
      <cc:Work rdf:about="">
        <dc:format>image/svg+xml</dc:format>
        <dc:type rdf:resource="http://purl.org/dc/dcmitype/StillImage"/>
        <dc:title/>
      </cc:Work>
    </rdf:RDF>
  </metadata>
  <g inkscape:label="Capa 1" inkscape:groupmode="layer" id="layer1" transform="translate(-421.71429,-525.79074)">
    <path style="opacity:1;fill:currentColor;fill-opacity:1;stroke:none;stroke-width:2.79999995;stroke-miterlimit:4;stroke-dasharray:none;stroke-opacity:0.55026455" d="M 11,3 C 8.2300013,3 6,5.2300013 6,8 l 0,6 0,5 1,0 3,0 0,-0.09961 0,-0.175782 L 10,17 10,9 10,8 c 0,-0.554 0.446,-1 1,-1 0.554,0 1,0.446 1,1 l 0,9 0,1 0,0.724609 0,0.175782 0,0.09961 1,0 2,0 1,0 0,-1 0,-9 0,-1 C 16,5.2300013 13.769999,3 11,3 Z m 0,1 c 2.215999,0 4,1.7840012 4,4 l 0,6 0,2.982422 L 15,18 13.978516,18 13,18 13,17.441406 13,9 13,8 C 13,6.8920013 12.107999,6 11,6 9.8920013,6 9,6.8920013 9,8 L 9,17 9,18 7,18 7,16.982422 7,14 7,9 7,8 C 7,5.7840012 8.7840012,4 11,4 Z" transform="translate(421.71429,525.79074)" id="rect3355" inkscape:connector-curvature="0" sodipodi:nodetypes="ssccccccccsssccccccccccsssscccccccsssccccccss" class="ColorScheme-Text"/>
  </g>
</svg>
